packages/core/assets/Icons/attach_file.svg

<svg viewBox="0 0 20 20" fill="none" xmlns="http://www.w3.org/2000/svg">
<path d="M14.9999 13.125C14.9999 14.5695 14.493 15.7986 13.4791 16.8125C12.4652 17.8264 11.236 18.3334 9.79159 18.3334C8.34714 18.3334 7.11797 17.8264 6.10409 16.8125C5.0902 15.7986 4.58325 14.5695 4.58325 13.125V5.41669C4.58325 4.37502 4.94784 3.4896 5.677 2.76044C6.40617 2.03127 7.29159 1.66669 8.33325 1.66669C9.37492 1.66669 10.2603 2.03127 10.9895 2.76044C11.7187 3.4896 12.0833 4.37502 12.0833 5.41669V12.7084C12.0833 13.3472 11.861 13.8889 11.4166 14.3334C10.9721 14.7778 10.4305 15 9.79159 15C9.1527 15 8.61103 14.7778 8.16659 14.3334C7.72214 13.8889 7.49992 13.3472 7.49992 12.7084V5.83335C7.49992 5.59724 7.57978 5.39933 7.7395 5.2396C7.89922 5.07988 8.09714 5.00002 8.33325 5.00002C8.56936 5.00002 8.76728 5.07988 8.927 5.2396C9.08672 5.39933 9.16659 5.59724 9.16659 5.83335V12.7084C9.16659 12.8889 9.22561 13.0382 9.34367 13.1563C9.46172 13.2743 9.61103 13.3334 9.79159 13.3334C9.97214 13.3334 10.1214 13.2743 10.2395 13.1563C10.3576 13.0382 10.4166 12.8889 10.4166 12.7084V5.41669C10.4027 4.83335 10.1978 4.3403 9.802 3.93752C9.40617 3.53474 8.91659 3.33335 8.33325 3.33335C7.74992 3.33335 7.25686 3.53474 6.85409 3.93752C6.45131 4.3403 6.24992 4.83335 6.24992 5.41669V13.125C6.23603 14.1111 6.57631 14.9479 7.27075 15.6354C7.9652 16.3229 8.80547 16.6667 9.79159 16.6667C10.7638 16.6667 11.5902 16.3229 12.2708 15.6354C12.9513 14.9479 13.3055 14.1111 13.3333 13.125V5.83335C13.3333 5.59724 13.4131 5.39933 13.5728 5.2396C13.7326 5.07988 13.9305 5.00002 14.1666 5.00002C14.4027 5.00002 14.6006 5.07988 14.7603 5.2396C14.9201 5.39933 14.9999 5.59724 14.9999 5.83335V13.125Z" fill="currentColor"/>
</svg>

<svg xmlns="http://www.w3.org/2000/svg" width="20" height="20" fill="none" viewBox="0 0 20 20">
  <path fill="#201F1F" d="M15 13.125c0 1.444-.507 2.674-1.52 3.688-1.015 1.013-2.244 1.52-3.688 1.52-1.445 0-2.674-.507-3.688-1.52-1.014-1.014-1.52-2.243-1.52-3.688V5.417c0-1.042.364-1.927 1.093-2.657.73-.729 1.615-1.093 2.656-1.093 1.042 0 1.927.364 2.656 1.093.73.73 1.094 1.615 1.094 2.657v7.291c0 .64-.222 1.18-.666 1.625A2.211 2.211 0 0 1 9.792 15c-.64 0-1.181-.222-1.625-.667a2.211 2.211 0 0 1-.667-1.625V5.833c0-.236.08-.434.24-.593.16-.16.357-.24.593-.24s.434.08.594.24c.16.16.24.357.24.593v6.875a.607.607 0 0 0 .625.625.607.607 0 0 0 .625-.625V5.417a2.106 2.106 0 0 0-.615-1.48 1.977 1.977 0 0 0-1.469-.604c-.583 0-1.076.202-1.479.605a2.012 2.012 0 0 0-.604 1.479v7.708c-.014.986.326 1.823 1.02 2.51.695.688 1.535 1.032 2.522 1.032.972 0 1.798-.344 2.479-1.032.68-.687 1.034-1.524 1.062-2.51V5.833c0-.236.08-.434.24-.593.16-.16.357-.24.594-.24.236 0 .434.08.593.24.16.16.24.357.24.593v7.292Z"/>
</svg>
